src/svgSprites/instagram.svg

<svg height="480pt" viewBox="0 0 480 480" width="480pt" xmlns="http://www.w3.org/2000/svg"><path d="m240 0c-132.546875 0-240 107.453125-240 240s107.453125 240 240 240 240-107.453125 240-240c-.148438-132.484375-107.515625-239.851562-240-240zm0 464c-123.710938 0-224-100.289062-224-224s100.289062-224 224-224 224 100.289062 224 224c-.140625 123.652344-100.347656 223.859375-224 224zm0 0"/><path d="m344 96h-208c-22.082031.027344-39.972656 17.917969-40 40v208c.027344 22.082031 17.917969 39.972656 40 40h208c22.082031-.027344 39.972656-17.917969 40-40v-208c-.027344-22.082031-17.917969-39.972656-40-40zm24 248c0 13.253906-10.746094 24-24 24h-208c-13.253906 0-24-10.746094-24-24v-208c0-13.253906 10.746094-24 24-24h208c13.253906 0 24 10.746094 24 24zm0 0"/><path d="m240 160c-44.183594 0-80 35.816406-80 80s35.816406 80 80 80 80-35.816406 80-80c-.046875-44.164062-35.835938-79.953125-80-80zm0 144c-35.347656 0-64-28.652344-64-64s28.652344-64 64-64 64 28.652344 64 64c-.039062 35.328125-28.671875 63.960938-64 64zm0 0"/><path d="m328 128c-13.253906 0-24 10.746094-24 24s10.746094 24 24 24 24-10.746094 24-24-10.746094-24-24-24zm0 32c-4.417969 0-8-3.582031-8-8s3.582031-8 8-8 8 3.582031 8 8-3.582031 8-8 8zm0 0"/></svg>

<svg xmlns="http://www.w3.org/2000/svg" viewBox="0 0 480 480"><title>instagram</title><path d="M240,0C107.45,0,0,107.45,0,240S107.45,480,240,480,480,372.55,480,240,372.48.15,240,0Zm0,464C116.29,464,16,363.71,16,240S116.29,16,240,16,464,116.29,464,240,363.65,463.86,240,464Z" transform="translate(0 0)" fill="#fdfdff"/><path d="M344,96H136a40,40,0,0,0-40,40V344a40,40,0,0,0,40,40H344a40,40,0,0,0,40-40V136A40,40,0,0,0,344,96Zm24,248a24,24,0,0,1-24,24H136a24,24,0,0,1-24-24V136a24,24,0,0,1,24-24H344a24,24,0,0,1,24,24Z" transform="translate(0 0)" fill="#fdfdff"/><path d="M240,160a80,80,0,1,0,80,80A80,80,0,0,0,240,160Zm0,144a64,64,0,1,1,64-64A64,64,0,0,1,240,304Z" transform="translate(0 0)" fill="#fff"/><path d="M328,128a24,24,0,1,0,24,24A24,24,0,0,0,328,128Zm0,32a8,8,0,1,1,8-8A8,8,0,0,1,328,160Z" transform="translate(0 0)" fill="#fff"/></svg>
